X:1
T:Title
%%score { ( 1 3 ) | ( 2 4 ) }
L:1/8
Q:1/4=87
M:3/8
K:Ab
V:1 bass nm="Grand Piano"
V:3 bass 
V:2 bass 
V:4 bass 
V:1
 [A,CE][E,A,C][E,B,D] | [CE]2[K:treble] [DF] | [CE]2 [CA] | [CE]2 z | [Ec][EB][EA] | [DG]2 [DB] | %6
w: G.~H.~Sandison * *||||||
 [CA]3- | [CA]2 z | GGA | B2 A | G2 [=DF] | G2 z | =DEF | G2 z | E3- | E2 z | B=AB | c2 z | %18
w: ||||||||||||
 [CA]2 [A,C] | [CE]2 z | c_c=c | d2 c | [=DB-]3 | B2 z | [Ee][Ec][DB] | [CA]2 [_Gc] | [Fd]2 F | %27
w: |||||||||
 E2 z | AGA | c2 B | [CA]3- | [CA]2 z |] %32
w: |||||
V:2
 A,,A,,A,, | z A,[A,,A,] | [A,,A,]2 [A,,E,] | [A,,A,]2 z | [A,,A,][B,,G,][C,A,] | [E,B,]2 [E,G,] | %6
 [A,,A,]3- | [A,,A,]2 z | [E,B,E][E,B,E][E,CE] | [E,DE]2 [E,CE] | [E,B,E]2 [B,,B,] | [E,B,E]2 z | %12
 [F,A,B,][G,B,][A,CE] | E z z | [E,G,]3- | [E,G,]2 z | [E,G,D][E,G,C][E,G,D] | E2 z | %18
 [A,,A,]2 [A,,E,] | [A,,A,]2 z | [F,=A,E][F,A,=D][F,A,E] | [F,=A,F]2 [F,A,E] | z z A, | E,2 z | %24
 [C,A,][A,,A,][E,G,] | [F,A,]2 [E,A,] | [D,A,]2 [F,A,D] | [A,C]2 z | [F,C=D][F,B,D][=E,A,D] | %29
 [E,G,E]2 [E,G,D] | [A,,A,]3- | [A,,A,]2 z |] %32
V:3
 x3 | E, z[K:treble] z | x3 | x3 | x3 | x3 | x3 | x3 | x3 | x3 | x3 | x3 | x3 | z C[=DF] | x3 | %15
 x3 | x3 | z E,B | x3 | x3 | x3 | x3 | B,2 z | [G,E]2 z | x3 | x3 | x3 | x3 | x3 | x3 | x3 | x3 |] %32
V:4
 x3 | A,,2 z | x3 | x3 | x3 | x3 | x3 | x3 | x3 | x3 | x3 | x3 | x3 | B,2 [B,,A,] | x3 | x3 | x3 | %17
 [E,A,] z [E,G,D] | x3 | x3 | x3 | x3 | B,,3 | x3 | x3 | x3 | x3 | x3 | x3 | x3 | x3 | x3 |] %32

